build/system/BarCodeOutline.svg

<svg xmlns="http://www.w3.org/2000/svg" fill="none" viewBox="0 0 24 24" focusable="false"><path d="M0 0H24V24H0z"/><path fill="#74767B" fill-rule="evenodd" d="M5.79928 2L5 2C3.34315 2 2 3.34315 2 5L2 5.69097C2 6.04996 2.29101 6.34097 2.65 6.34097C3.00899 6.34097 3.3 6.04996 3.3 5.69097L3.3 5C3.3 4.06112 4.06112 3.3 5 3.3L5.79928 3.3C6.15826 3.3 6.44928 3.00899 6.44928 2.65C6.44928 2.29101 6.15826 2 5.79928 2ZM21.35 6.34097C21.709 6.34097 22 6.04996 22 5.69097L22 5C22 3.34315 20.6569 2 19 2L18.4172 2C18.0582 2 17.7672 2.29101 17.7672 2.65C17.7672 3.00899 18.0582 3.3 18.4172 3.3L19 3.3C19.9389 3.3 20.7 4.06112 20.7 5L20.7 5.69097C20.7 6.04996 20.991 6.34097 21.35 6.34097ZM5.80439 7.94748C5.4454 7.94748 5.15439 8.23849 5.15439 8.59748L5.15439 15.4024C5.15439 15.7613 5.4454 16.0523 5.80439 16.0523L7.07899 16.0523C7.43797 16.0523 7.72899 15.7613 7.72899 15.4024L7.72899 8.59748C7.72898 8.23849 7.43797 7.94748 7.07899 7.94748L5.80439 7.94748ZM14.5731 7.94748C14.2141 7.94748 13.9231 8.23849 13.9231 8.59748L13.9231 15.4024C13.9231 15.7613 14.2141 16.0523 14.5731 16.0523L15.8477 16.0523C16.2067 16.0523 16.4977 15.7613 16.4977 15.4024L16.4977 8.59748C16.4977 8.23849 16.2067 7.94748 15.8477 7.94748L14.5731 7.94748ZM19.106 8.5975C19.106 8.23852 18.815 7.9475 18.456 7.9475C18.097 7.9475 17.806 8.23852 17.806 8.5975L17.806 15.4024C17.806 15.7614 18.097 16.0524 18.456 16.0524C18.815 16.0524 19.106 15.7614 19.106 15.4024L19.106 8.5975ZM11.9619 8.59753C11.9619 8.23855 11.6709 7.94753 11.3119 7.94753C10.9529 7.94753 10.6619 8.23855 10.6619 8.59753L10.6619 15.4024C10.6619 15.7614 10.9529 16.0524 11.3119 16.0524C11.6709 16.0524 11.9619 15.7614 11.9619 15.4024L11.9619 8.59753ZM2.65 17.6589C2.29101 17.6589 2 17.9499 2 18.3089L2 19C2 20.6569 3.34315 22 5 22L5.79928 22C6.15826 22 6.44927 21.709 6.44928 21.35C6.44928 20.991 6.15826 20.7 5.79928 20.7L5 20.7C4.06112 20.7 3.3 19.9389 3.3 19L3.3 18.3089C3.3 17.9499 3.00899 17.6589 2.65 17.6589ZM21.35 17.6589C20.991 17.6589 20.7 17.9499 20.7 18.3089L20.7 19C20.7 19.9389 19.9389 20.7 19 20.7L18.4172 20.7C18.0582 20.7 17.7672 20.991 17.7672 21.35C17.7672 21.709 18.0582 22 18.4172 22L19 22C20.6569 22 22 20.6569 22 19L22 18.3089C22 17.9499 21.709 17.6589 21.35 17.6589Z"/></svg>

<svg xmlns="http://www.w3.org/2000/svg" fill="none" viewBox="0 0 24 24" focusable="false"><path fill="#74767B" fill-rule="evenodd" d="M5.79 2H5C3.34 2 2 3.34 2 5v.69c0 .35.29.65.64.65.36 0 .65-.3.65-.65V5c0-.94.77-1.71 1.71-1.71h.79c.36 0 .65-.29.65-.64 0-.36-.29-.65-.65-.65m15.56 4.34c.35 0 .65-.3.65-.65V5c0-1.66-1.35-3-3-3h-.59c-.36 0-.65.29-.65.65 0 .35.29.64.65.64H19c.93 0 1.7.77 1.7 1.71v.69c0 .35.29.65.65.65M5.8 7.94c-.36 0-.65.29-.65.65v6.81c0 .36.29.65.65.65h1.27c.36 0 .65-.29.65-.65V8.59c0-.36-.29-.65-.65-.65zm8.77 0c-.36 0-.65.29-.65.65v6.81c0 .36.29.65.65.65h1.27c.36 0 .65-.29.65-.65V8.59c0-.36-.29-.65-.65-.65zm4.53.65c0-.36-.29-.65-.65-.65s-.65.29-.65.65v6.81c0 .36.29.65.65.65s.65-.29.65-.65zm-7.14 0c0-.36-.29-.65-.65-.65s-.65.29-.65.65v6.81c0 .36.29.65.65.65s.65-.29.65-.65zm-9.32 9.06c-.35 0-.64.29-.64.65v.7c0 1.65 1.34 3 3 3h.79c.36 0 .65-.3.65-.65 0-.36-.29-.65-.65-.65H5c-.94 0-1.71-.77-1.71-1.7v-.7c0-.36-.29-.65-.65-.65m18.71 0c-.36 0-.65.29-.65.65v.7c0 .93-.77 1.7-1.7 1.7h-.59c-.36 0-.65.29-.65.65 0 .35.29.65.65.65H19c1.65 0 3-1.35 3-3v-.7c0-.36-.3-.65-.65-.65"/></svg>
